tools/download-figma-icons/icons/action/headset.svg

<svg width="24" height="24" viewBox="0 0 24 24" fill="none" xmlns="http://www.w3.org/2000/svg">
<path d="M19.4383 6.60651C19.2264 4.78724 18.352 3.10907 16.9812 1.89103C15.6104 0.672988 13.8389 0 12.0034 0C10.1678 0 8.39629 0.672988 7.02551 1.89103C5.65473 3.10907 4.78028 4.78724 4.5684 6.60651C3.20958 6.84032 1.98822 7.57455 1.14599 8.66393C0.303764 9.75331 -0.097968 11.1185 0.0202892 12.4892C0.138546 13.86 0.768176 15.1366 1.78459 16.0663C2.80101 16.9961 4.13016 17.5112 5.50903 17.5099C5.66441 17.5148 5.81881 17.4836 5.95998 17.4186C6.10115 17.3537 6.22521 17.2568 6.32233 17.1357C6.41944 17.0145 6.48694 16.8725 6.51946 16.7208C6.55198 16.5691 6.54864 16.412 6.5097 16.2618C6.52016 16.1789 6.52016 16.0951 6.5097 16.0122V7.51512C6.5097 6.05865 7.08955 4.66183 8.12168 3.63195C9.15382 2.60207 10.5537 2.02349 12.0134 2.02349C13.473 2.02349 14.8729 2.60207 15.905 3.63195C16.9372 4.66183 17.517 6.05865 17.517 7.51512V18.6781C17.517 19.1769 17.3192 19.6554 16.9666 20.009C16.6141 20.3626 16.1356 20.5626 15.6358 20.5652H15.2855C15.1064 20.1067 14.7928 19.7128 14.3858 19.435C13.9788 19.1571 13.4972 19.0081 13.004 19.0076H10.8726C10.2259 19.0102 9.60635 19.2678 9.14902 19.7241C8.6917 20.1804 8.43361 20.7986 8.43098 21.4439V21.5637C8.43361 22.209 8.6917 22.8272 9.14902 23.2835C9.60635 23.7398 10.2259 23.9974 10.8726 24H13.004C13.4739 24.0002 13.9339 23.8644 14.3281 23.6093C14.7224 23.3541 15.0341 22.9904 15.2255 22.5622H15.6258C16.6564 22.5595 17.6439 22.1492 18.3718 21.421C19.0996 20.6929 19.5084 19.7065 19.5084 18.6781V17.43C20.7762 17.1914 21.9201 16.5166 22.7408 15.5232C23.5615 14.5298 24.0071 13.2807 23.9999 11.9933C23.9928 10.7059 23.5334 9.46175 22.7017 8.47748C21.87 7.49321 20.7188 6.83113 19.4483 6.60651H19.4383ZM4.50836 15.3632C3.78486 15.1486 3.15017 14.7066 2.69884 14.103C2.24751 13.4994 2.00368 12.7664 2.00368 12.0133C2.00368 11.2601 2.24751 10.5272 2.69884 9.92354C3.15017 9.3199 3.78486 8.8779 4.50836 8.66337V15.3632ZM13.4343 21.5637C13.4343 21.6785 13.3893 21.7888 13.3089 21.8709C13.2285 21.953 13.1191 22.0004 13.004 22.003H10.8726C10.7558 22.003 10.6438 21.9568 10.5613 21.8744C10.4787 21.792 10.4323 21.6802 10.4323 21.5637V21.4439C10.4323 21.3274 10.4787 21.2156 10.5613 21.1332C10.6438 21.0509 10.7558 21.0046 10.8726 21.0046H13.004C13.1208 21.0046 13.2328 21.0509 13.3154 21.1332C13.3979 21.2156 13.4443 21.3274 13.4443 21.4439L13.4343 21.5637ZM19.4984 15.3731V8.66337C20.2258 8.87509 20.8649 9.31654 21.3196 9.92146C21.7742 10.5264 22.02 11.2621 22.02 12.0183C22.02 12.7744 21.7742 13.5101 21.3196 14.1151C20.8649 14.72 20.2258 15.1614 19.4984 15.3731Z" fill="black"/>
</svg>

<svg width="24" height="24" viewBox="0 0 24 24" fill="none" xmlns="http://www.w3.org/2000/svg"><path d="M19.438 6.607a7.463 7.463 0 0 0-2.457-4.716 7.494 7.494 0 0 0-9.955 0 7.463 7.463 0 0 0-2.458 4.716 5.506 5.506 0 0 0-3.422 2.057 5.483 5.483 0 0 0 .639 7.402 5.51 5.51 0 0 0 3.724 1.444 1.003 1.003 0 0 0 1.01-.79.996.996 0 0 0-.01-.458.997.997 0 0 0 0-.25V7.515c0-1.456.58-2.853 1.613-3.883a5.51 5.51 0 0 1 7.783 0 5.485 5.485 0 0 1 1.612 3.883v11.163c0 .499-.198.977-.55 1.331a1.893 1.893 0 0 1-1.331.556h-.35a2.446 2.446 0 0 0-2.282-1.557h-2.131a2.454 2.454 0 0 0-1.724.716 2.444 2.444 0 0 0-.718 1.72v.12c.003.645.26 1.263.718 1.72a2.454 2.454 0 0 0 1.724.716h2.131a2.436 2.436 0 0 0 2.222-1.438h.4a3.897 3.897 0 0 0 2.746-1.141 3.88 3.88 0 0 0 1.136-2.743V17.43a5.516 5.516 0 0 0 3.233-1.907 5.494 5.494 0 0 0-.04-7.046 5.516 5.516 0 0 0-3.253-1.87h-.01Zm-14.93 8.756a3.49 3.49 0 0 1 0-6.7v6.7Zm8.926 6.2a.44.44 0 0 1-.43.44h-2.131a.44.44 0 0 1-.44-.44v-.12a.439.439 0 0 1 .44-.438h2.131a.441.441 0 0 1 .44.439l-.01.12Zm6.064-6.19v-6.71a3.49 3.49 0 0 1 0 6.71Z" fill="currentColor"/></svg>
